X: 18922
T: Independent, The
R: jig
M: 6/8
K: Dmajor
A,|DCD FED|FAd BAF|BAF dAF|EFE EDB,|
DB,A, DFA|BdB BAF|BAF dAF|EDC D2:|
A|dcd fed|BdB BAF|BAF dAF|EFE EFA|
dcd fed|BdB BAF|BAF dAF|EDC DFA|
dcd fed|afd ege|fdB AFA|BAF EFE|
DB,A, DFA|BdB BAF|BAF dAF|EDC D2||

